X:1
T:Pilot Me
T:Pilot Me
T:Lelia Naylor Morris
T:Lelia Naylor Morris, 1905
T:Public Domain Courtesy of the Cyber Hymnal™
T:Public Domain Courtesy of the Cyber Hymnal™
C:Lelia Naylor Morris
Z:Public Domain
Z:Courtesy of the Cyber Hymnal™
%%score ( 1 2 ) ( 3 4 )
L:1/8
Q:1/4=83
M:6/8
K:E
V:1 treble 
V:2 treble 
V:3 bass 
V:4 bass 
V:1
 [GB]/[GB]/ | [GB]>[FA][EG] [DF][EG][DF] | B,3 [B,E]2 [GB]/[GB]/ | [GB]>[FA][EG] | [DF]B,[DA] | %5
w: 1.~On the|o- cean of life we are|sail- ing, For the|Ca- naan a-|bove we are|
w: 2.~For He|knows where the dan- gers are|lurk- ing, Where the|rocks and the|hid- den reefs|
w: 3.~Soon the|ha- ven our bark will be|near- ing, The Je-|ru- sa- lem|gold- en and|
 [EG]3- [EG]2 [EG]/[EG]/ | [FG]>[FA][FG] [EG]>[EA][EG] | [Ec]3 [EG]2 [EG]/[EG]/ | %8
w: bound; * We are|cer- tain the port to be|gain- ing, Since the|
w: lie; * We are|safe tho’ the bil- lows are|break- ing, And the|
w: fair; * Soon the|lights of the ci- ty ap-|pear- ing, Soon the|
 [EF][E^A][Ec] [Ge][Fd][Ec] | [DB]3- [DB]2 z ||"^Refrain" [EB]3 B3 | [EB]2 z4 | [CE]3 [CA]3 | %13
w: hea- ven- ly Pi- lot we’ve|found. *||||
w: hun- gry waves dash mount- ains|high. *|Pi- lot|me,|pi- lot|
w: home of the ran- somed we’ll|share. *||||
 [B,G]3- [B,G]2 z | [DF]2 [EG] (AG)[DF] | [EG]2 [FA] [GB]3 | [Ac]2 [Ac] (cd)[Ee] | %17
w: ||||
w: me; *|Take the helm * in|Thine own hand,|Bring my sink- * ing|
w: ||||
 [EB]2 [EG] [DF]3 | [EB]3 [DA]3 | [EG]3- [EG]2 z | [EA]3 [Ec]3 | [EB]3- [EB]2 z | E3 E3 | %23
w: ||||||
w: bark to land;|Pi- lot|me, *|pi- lot|me; *|Pi- lot|
w: ||||||
 [B,E]3 [B,D]3 | ([B,E]3 [CE]3 | [B,E]3- [B,E]2) |] %26
w: |||
w: * me.|||
w: |||
V:2
 x | x6 | B,3 x3 | x3 | x B, x | x6 | x6 | x6 | x6 | x6 || x3 (DEF) | x6 | x6 | x6 | x3 D2 x | x6 | %16
 x3 E2 x | x6 | x6 | x6 | x6 | x6 | E2 C ^A,2 A, | x6 | x6 | x5 |] %26
V:3
 [E,E]/[E,E]/ | [E,E]>[E,B,][E,B,] [B,,B,][B,,B,][B,,A,] | [E,G,]3 [E,G,]2 [E,E]/[E,E]/ | %3
w: ~ ~|~ ~ ~ ~ ~ ~|~ ~ ~ ~|
 [E,E]>[E,B,][E,B,] | [B,,B,][B,,A,][B,,B,] | [E,B,]3- [E,B,]2 [E,B,]/[E,B,]/ | %6
w: ~ ~ ~|~ ~ ~|~ * ~ ~|
 [D,^B,]>[D,B,][D,B,] [C,C]>[C,C][C,C] | [C,G,]3 [C,C]2 [C,C]/[C,C]/ | %8
w: ~ ~ ~ ~ ~ ~|~ ~ ~ ~|
 [F,^A,][F,C][F,A,] [F,A,][F,A,][F,A,] | [B,,F,]3- [B,,F,]2 z || [E,G,]3 (F,G,A,) | %11
w: ~ ~ ~ ~ ~ ~|~ *|~ ~ * *|
 [E,G,]2 B, (CB,)A, | [A,,A,]3 [A,,E,]3 | E,2 E, E,2 z | [A,B,]2 [G,B,] [F,B,]2 [B,,B,] | %15
w: ~ O Sav- * ior,|pi- lot,|pi- lot me;|~ ~ ~ ~|
 [E,B,]2 [E,E] [E,E]3 | [A,E]2 [A,E] [A,C]2 [A,C] | [G,B,]2 [E,B,] [B,,B,]3 | %18
w: ~ ~ ~|~ ~ ~ ~|~ ~ ~|
 [G,B,]2 [G,B,] [F,B,]3 | [E,B,]2 [E,B,] [C,C]2 z | [A,,C]3 [A,,A,]3 | [E,G,]2 [E,G,] [E,G,]2 z | %22
w: Pi- lot me,|pi- lot me,|Sav- ior,|pi- lot me,|
 [C,G,]2 [C,E,] [=C,^^F,]2 [C,F,] | [B,,G,]3 (F,G,A,) | [E,G,]3 [E,A,]3 | [E,G,]3- [E,G,]2 |] %26
w: Je- sus, Sav- ior,|pi- lot * *|ev- en|me. *|
V:4
 x | x6 | x6 | x3 | x3 | x6 | x6 | x6 | x6 | x6 || x3 B,,3 | x6 | x6 | E,2 E, E,2 x | x6 | x6 | %16
 x6 | x6 | x6 | x6 | x6 | x6 | x6 | x3 B,,3 | x6 | x5 |] %26

